X:1
T:THE KING OF THE CAKE WALK
T:THE KING OF THE CAKE WALK
T:(LE ROI DU CAKE WALK)
T:Marius CAIRANNE
T:POUR PIANO
T: à Mademoiselle Emma WIEDERHOLD 
T:M. C. 453
T:M. C. 453
T:M. C. 453
C:Marius CAIRANNE
Z:M. C. 453
%%score { 1 | 2 }
L:1/8
Q:1/4=90
M:2/4
K:Bb
V:1 treble nm="Piano" snm="Pno."
V:2 bass 
V:1
"^Mouvᵗ de Cake Walk"!ff! [GBdg] !>![GBdg]2 [Gce] | [GBd](B/c/ d)(B/c/ | d) [DBd][DBd][DBd] | %3
 [^FAd^f]2 !^![Acd]2 | !^![Bdgb]2 !^![GB^cg]2 | (([^Fcd]4 | [GBd]4-)) | [GBd] z [GBdg] z |: %8
!mf! [Bd] !>![Bd]2 [GB] | (A/Bc/) (A/^F/)A | [Bd] !>![Bd]2 [GB] | (A/Bc/) (e/c/)e | %12
!ff! [Gceg] !>![Gceg]2 [ce] | [Bd] !>![Bd]2 [GB] | A^G/A/ BA | D z !^![DAcd]2 | %16
!mf! [Bd] !>![Bd]2 [GB] | (A/Bc/) (A/^F/)A | [Bd] !>![Bd]2 [GB] | (A/Bc/) (e/c/)e | %20
!ff! [Gceg] !>![Gceg]2 [ce] | [GBd] !>![GBd]2 [ce] | AB/c/ ed | G z !^![GBdg] z :: %24
!f! [Fdf] !>![Fdf]2 [Fd] | (B/c/d) (B/c/d) | [Geg] !^![Geg]2 [Ge] | (d/e/f) (d/e/f) | %28
 [F=Be] !^![FBe]2 [FBd] | (c/=B/d) (c/B/d) | c!^![GB^c]!^![GBd]!^![GB=e] | [FAf]G/A/ B/c/d/e/ | %32
 [Fdf] !^![Fdf]2 [Gdg] | [Gdg]fdB | [Gc] [Gc]2 [Ge] | [Aa]gec | GG/^F/ G/A/B/c/ | d !^!f2 B | %38
 F2 c2 |1 B !^!F!^!B!^!d :|2 B z!f! !^![D^Fcd]2 |:!mf! [Bd] !>![Bd]2 [GB] | (A/Bc/) (A/^F/)A | %43
 [Bd] !>![Bd]2 [GB] | (A/Bc/) (e/c/)e |!ff! [GBdg] !>![GBdg]2 [ce] | [Bd] !>![Bd]2 [GB] | %47
 A^G/A/ BA | D z !^![DAcd]2 |!mf! [Bd] !>![Bd]2 [GB] | (A/Bc/) (A/^F/)A | [Bd] !>![Bd]2 [GB] | %52
 (A/Bc/) (e/c/)e |!ff! [GBdg] !>![GBdg]2 [ce] | [GBd] !>![GBd]2 [ce] | AB/c/ ed |1 %56
 G z !^![A,EFA]2 :|2 G z [GBdg] !fermata!z!fine! |:S!mf! [DF] !^![DB]2 [Fc] | [Bd][Fc][DB][DF] | %60
 [EG] [EG]2 [GB] | [DF]4 |!ff! [F=Bd] !^![FBd]2 [FBe] | [F=Be]dBd | [=E_Bc] [EBc]2 [EG] | %65
 [FAc]!>(! AG_G!>)! |!mf! [DF] !^![DB]2 [Fc] | [Bd][Fc][DB][DF] | [EG] [EG]2 [GB] | [DF]d^cd | %70
!ff! [G=Bg] [GBg]2 [GBd] | [Gce]/GA/ G2 | [FAc] [FAd]2 [EF] | %73
!ff! [DFB] z !^![Ff]/!^![Gg]/!^![Ff] :|!mf! [Fdf] [Fdf]2 [Fd] | (B/c/d) (B/c/d) | %76
 [Geg] !^![Geg]2 [Ge] | (d/e/f) (d/e/f) | [F=Be] !^![FBe]2 [FBd] | (c/=B/d) (c/B/d) | %80
 c[GB^c][GBd][GB=e] | [FAf]G/A/ B/c/d/e/ | [Fdf] !^![Fdf]2 [Gdg] | [Gdg]fdB | [Gc] [Gc]2 [Ge] | %85
 [Aa]gec | GG/^F/ G/A/B/c/ | d !^!f2 B | F2 c2 | B z !^![Bdfb] z |] %90
V:2
 [G,,G,] !>![G,,G,]2 [G,,G,] | [G,,G,](B,/C/ D)(B,/C/ | D) [B,,B,][A,,A,][G,,G,] | %3
 [D,,D,]>!>(![^D,,^D,] [=E,,=E,][^F,,^F,]!>)! |!p! [G,,G,]>[^F,,^F,] [=F,,=F,][E,,E,] | %5
 [D,,D,]>!>(![^D,,^D,] [=E,,=E,][^F,,^F,]!>)! | [G,,G,]D,[G,,G,]D, | [G,,G,] z [G,,,G,,] z |: %8
 G,[B,D] D,[B,D] | ^F,[CD] D,[CD] | G,[B,D] D,[B,D] | ^F,[CD] D,[CD] | E,[G,C] C,[G,C] | %13
 D,[G,B,] D,[G,B,] | ^C,[G,A,] A,,[G,A,] | D, [^D,,^D,][=E,,=E,][^F,,^F,] | [G,,G,][B,D] D,[B,D] | %17
 ^F,[CD] D,[CD] |"_Paris, M. CAIRANNE, Edʳ 3, Rue Turgol." G,[B,D] D,[B,D] | ^F,[CD] D,[CD] | %20
 E,[G,C] C,[G,C] | D,[B,D] D,[B,D] | D,[^F,C] D,[F,C] | %23
"_Copyright by Marius Cairanne,1903.""_Tous Droits d'Exécution et De Reproduction réser." [G,B,] z !^![G,,G,] z :: %24
 B,,[F,B,D] B,,[F,B,D] | B,,[F,B,D] B,,[F,B,D] | E,[G,B,] E,[G,B,] | B,,[F,B,D] B,,[F,B,D] | %28
 G,,[F,G,=B,] G,,[F,G,B,] | C,[E,G,] C,[E,G,] | C,[=E,B,] C,[E,B,] | [F,A,] z !^![F,A,E]2 | %32
 B,,[F,B,D] B,,[F,B,D] | B,,[_A,B,D] B,,[A,B,D] | E,[G,B,C] E,[G,B,C] | E,[G,B,C] E,[G,B,C] | %36
 =E,[G,B,C] E,[G,B,C] | F,[B,D] F,[B,D] | F,[A,E] F,[A,E] |1 [B,D] !^!D!^!B,!^!F, :|2 %40
 [B,D] z [A,,A,]2 |: G,[B,D] D,[B,D] | ^F,[CD] D,[CD] | G,[B,D] D,[B,D] | ^F,[CD] D,[CD] | %45
 E,[G,C] C,[G,C] | D,[G,B,] D,[G,B,] | ^C,[G,A,] A,,[G,A,] | D, [^D,,^D,][=E,,=E,][^F,,^F,] | %49
 [G,,G,][B,D] D,[B,D] | ^F,[CD] D,[CD] | G,[B,D] D,[B,D] | ^F,[CD] D,[CD] | E,[G,C] C,[G,C] | %54
 D,[B,D] D,[B,D] | D,[^F,C] D,[F,C] |1 [G,B,] z !^![F,,F,]2 :|2 [G,B,] z [G,,G,] !fermata!z |: %58
 B,,[F,B,] B,,[F,B,] | B,,[F,B,] B,,[F,B,] | E,[G,B,] E,[G,B,] | B,,[F,B,] B,,[F,B,] | %62
 G,,[F,G,=B,] G,,[F,G,B,] | G,,[F,G,=B,] G,,[F,G,B,] | C,[G,B,C] C,[G,B,C] | %65
 F,,[F,A,E][F,A,E][F,A,E] | B,,[F,B,] B,,[F,B,] | B,,[F,B,] B,,[F,B,] | E,[G,B,] E,[G,B,] | %69
 B,,[F,B,] B,,[F,B,] | G,,[F,G,=B,] G,,[F,G,B,] | C,[E,G,C] C,[E,G,C] | F,,[E,F,A,] F,,[E,F,A,] | %73
 [B,,D,F,B,] z !^![F,,F,]/!^![G,,G,]/!^![F,,F,] :| B,,[F,B,D] B,,[F,B,D] | B,,[F,B,D] B,,[F,B,D] | %76
 E,[G,B,] E,[G,B,] | B,,[F,B,D] B,,[F,B,D] | G,,[F,G,=B,] G,,[F,G,B,] | C,[E,G,] C,[E,G,] | %80
 C,[=E,B,] C,[E,B,] | [F,A,] z !^![F,A,E]2 | B,,[F,B,D] B,,[F,B,D] | B,,[_A,B,D] B,,[A,B,D] | %84
 E,[G,B,C] E,[G,B,C] | E,[G,B,C] E,[G,B,C] | =E,[G,B,C] E,[G,B,C] | F,[B,D] F,[B,D] | %88
 F,[A,E] F,[A,E] | [B,D] z !^![B,,,B,,] z |] %90

